dist/images/ico/ico_menu_01.svg

<svg width="19" height="13" fill="none" xmlns="http://www.w3.org/2000/svg"><path d="M1.5 12.5h16c.55 0 1-.45 1-1s-.45-1-1-1h-16c-.55 0-1 .45-1 1s.45 1 1 1zm0-5h16c.55 0 1-.45 1-1s-.45-1-1-1h-16c-.55 0-1 .45-1 1s.45 1 1 1zm-1-6c0 .55.45 1 1 1h16c.55 0 1-.45 1-1s-.45-1-1-1h-16c-.55 0-1 .45-1 1z" fill="#1C1C1B"/></svg>

<svg width="19" height="13" viewBox="0 0 19 13" fill="none" xmlns="http://www.w3.org/2000/svg">
<path d="M1.5 12.5H17.5C18.05 12.5 18.5 12.05 18.5 11.5C18.5 10.95 18.05 10.5 17.5 10.5H1.5C0.95 10.5 0.5 10.95 0.5 11.5C0.5 12.05 0.95 12.5 1.5 12.5ZM1.5 7.5H17.5C18.05 7.5 18.5 7.05 18.5 6.5C18.5 5.95 18.05 5.5 17.5 5.5H1.5C0.95 5.5 0.5 5.95 0.5 6.5C0.5 7.05 0.95 7.5 1.5 7.5ZM0.5 1.5C0.5 2.05 0.95 2.5 1.5 2.5H17.5C18.05 2.5 18.5 2.05 18.5 1.5C18.5 0.95 18.05 0.5 17.5 0.5H1.5C0.95 0.5 0.5 0.95 0.5 1.5Z" fill="#1C1C1B"/>
</svg>
